X:1
T:Violetta -- Hornpipe
R:hornpipe
B:Cole's 1000 Fiddle Tunes
M:C|
L:1/8
K:F
vAB|c=Bcd cfaf|dfba gfed|c=Bcd cAFA|Gc=Bc dcA_B|
c=Bcd cfaf|dfba gfed|cfaf dbge|f2f2f2:|
|:uef|g^fga bgec|fefg afcA|dbca BgAf|(3gag (3fed c2 (AB)|
c=Bcd cfaf|dfba gfed|cfaf dbge|f2f2f2:|
